packages/core/src/svgs/tokens/mono/LIME.svg

<svg width="24" height="24" viewBox="0 0 24 24" fill="none" xmlns="http://www.w3.org/2000/svg">
<path fill-rule="evenodd" clip-rule="evenodd" d="M22 11.9971C21.9992 9.34486 20.9448 6.80165 19.069 4.92684C18.1402 3.99853 17.0375 3.26226 15.8241 2.76007C14.6107 2.25788 13.3102 1.9996 11.9971 2C9.34486 2.00077 6.80166 3.05508 4.92685 4.93099C3.05204 6.8069 1.99922 9.35076 2 12.003C2.00078 14.6551 3.0551 17.1983 4.93101 19.0731C6.80692 20.948 9.35076 22.0007 12.003 22C14.6551 21.9992 17.1983 20.9448 19.0731 19.069C20.948 17.193 22.0007 14.6492 22 11.9971ZM20.8238 11.9971C20.8238 9.65757 19.8944 7.41394 18.2402 5.7597C16.5861 4.10546 14.3423 3.17612 12.003 3.17612C9.66347 3.17612 7.41984 4.10546 5.7656 5.7597C4.11134 7.41394 3.18201 9.65757 3.18201 11.9971C3.18201 14.3364 4.11134 16.5802 5.7656 18.2344C7.41984 19.8885 9.66347 20.8179 12.003 20.8179C14.3423 20.8179 16.5861 19.8885 18.2402 18.2344C19.8944 16.5802 20.8238 14.3364 20.8238 11.9971ZM12.003 10.8209C12.3149 10.8209 12.614 10.9448 12.8346 11.1654C13.0551 11.3859 13.179 11.6851 13.179 11.9971C13.179 12.309 13.0551 12.6081 12.8346 12.8287C12.614 13.0492 12.3149 13.1731 12.003 13.1731C11.691 13.1731 11.3918 13.0492 11.1713 12.8287C10.9507 12.6081 10.8268 12.309 10.8268 11.9971C10.8268 11.6851 10.9507 11.3859 11.1713 11.1654C11.3918 10.9448 11.691 10.8209 12.003 10.8209ZM16.9015 18.7303C18.1676 17.8029 19.1494 16.5401 19.736 15.0844C19.7902 14.9546 19.8146 14.8144 19.8075 14.6739C19.8003 14.5335 19.7619 14.3964 19.6948 14.2728C19.5654 14.0082 19.3419 13.8436 19.0596 13.773L14.2375 12.6204C14.0779 12.5831 13.9108 12.5927 13.7564 12.648C13.6021 12.7033 13.4669 12.802 13.3672 12.9321C13.2627 13.0587 13.1984 13.2138 13.1827 13.3772C13.167 13.5407 13.2006 13.7051 13.2791 13.8495L15.4724 18.3892C15.6018 18.6421 15.8254 18.8185 16.1076 18.8832C16.3899 18.9538 16.6662 18.9068 16.9015 18.7303ZM7.13966 18.7362C5.90649 17.843 4.93901 16.6315 4.34049 15.2314C4.22287 14.955 4.23463 14.6728 4.36988 14.4081C4.50515 14.1435 4.72273 13.9671 5.01675 13.9023L9.76831 12.6086C9.82703 12.5968 9.8859 12.585 9.94476 12.585C10.2152 12.5734 10.474 12.6969 10.6387 12.9203C10.741 13.048 10.8039 13.2029 10.8196 13.3658C10.8353 13.5288 10.803 13.6928 10.7269 13.8377L8.57453 18.3951C8.43339 18.6598 8.2217 18.8244 7.93942 18.895C7.6454 18.9655 7.369 18.9127 7.13378 18.7362H7.13966ZM17.5307 5.78123C16.335 4.73646 14.8738 4.04249 13.3084 3.77594C13.0144 3.73477 12.7497 3.80534 12.5263 3.98765C12.3028 4.17582 12.1852 4.42869 12.1852 4.72272L12.1558 9.95643C12.144 10.2975 12.3323 10.5916 12.6439 10.7385C12.7922 10.8078 12.9573 10.8336 13.1196 10.8128C13.2821 10.7919 13.4352 10.7255 13.5613 10.621L17.5072 7.25138C17.7365 7.06908 17.86 6.81622 17.86 6.52218C17.86 6.22815 17.7542 5.97529 17.5307 5.78123ZM11.8088 9.92706L11.6442 4.72272C11.6383 4.42869 11.509 4.18758 11.2855 3.9994C11.1787 3.90927 11.0526 3.8449 10.9171 3.81124C10.7814 3.7776 10.6399 3.77558 10.5034 3.80534C8.95406 4.08397 7.51608 4.79785 6.35754 5.86356C6.13995 6.06349 6.0341 6.32812 6.04586 6.61627C6.05175 6.91031 6.18111 7.15729 6.41634 7.33958L10.4151 10.6328C10.5798 10.768 10.7797 10.8268 10.9796 10.8209C11.0932 10.8179 11.2051 10.7922 11.3085 10.7454C11.412 10.6986 11.505 10.6317 11.5823 10.5484C11.6595 10.4652 11.7194 10.3672 11.7583 10.2606C11.7972 10.1539 11.8144 10.0405 11.8088 9.92706ZM17.8247 7.66303L14.0906 10.8092C13.867 10.9855 13.7553 11.2325 13.7612 11.5031C13.7656 11.7004 13.8375 11.8903 13.9649 12.0411C14.0922 12.1919 14.2673 12.2947 14.461 12.3323L19.1656 13.2732C19.4478 13.326 19.7183 13.2673 19.9418 13.079C20.177 12.8968 20.3064 12.6498 20.3123 12.3558C20.3239 12.2382 20.3239 12.1147 20.3239 11.9971C20.3239 10.5268 19.9418 9.15081 19.2773 7.94529C19.2075 7.82317 19.1119 7.71778 18.9971 7.6365C18.8822 7.55524 18.751 7.50006 18.6127 7.47485C18.3187 7.41604 18.0541 7.47485 17.8247 7.66303ZM9.8859 10.8033L6.09291 7.763C5.85768 7.58657 5.58718 7.52777 5.3049 7.59834C5.01675 7.66303 4.7933 7.83356 4.65803 8.08643C3.91586 9.47014 3.58336 11.0369 3.6995 12.6027C3.71714 12.8968 3.85828 13.1379 4.08762 13.3143C4.32285 13.4907 4.59924 13.5495 4.8815 13.479L9.56248 12.3381C9.8977 12.2557 10.1388 12.0146 10.2093 11.6737C10.2484 11.5128 10.2385 11.3441 10.1809 11.1889C10.1233 11.0338 10.0205 10.8995 9.8859 10.8033ZM14.3728 19.977C13.9494 20.0946 13.5261 19.9477 13.0908 19.8006C12.7556 19.683 12.4146 19.5654 12.0558 19.5654C11.7206 19.5654 11.356 19.683 10.9973 19.7947C10.5268 19.9418 10.0683 20.0887 9.66828 19.9829C9.38603 19.9065 9.26843 19.7535 9.15083 19.5006C9.02733 19.242 9.02733 18.9714 9.15083 18.7128L11.2914 14.2434C11.4383 13.9435 11.7324 13.7612 12.0735 13.7612C12.4146 13.7612 12.7085 13.9377 12.8556 14.2434L14.9903 18.6774C15.1138 18.9302 15.1138 19.1949 14.9962 19.4595C14.8609 19.7183 14.6551 19.8888 14.3728 19.9711V19.977ZM12.003 14.2199V18.9127C12.003 18.9127 12.0264 19.1126 11.5618 19.2537L10.2798 19.63C10.1799 19.6595 9.40373 19.7653 9.72714 18.8891C10.0447 18.0187 11.5618 14.6139 11.5618 14.6139C11.5618 14.6139 11.7206 14.2493 12.003 14.2199Z" fill="white"/>
</svg>

<svg xmlns="http://www.w3.org/2000/svg" width="24" height="24" fill="none" viewBox="0 0 24 24">
    <path fill="#fff" fill-rule="evenodd" d="M22 11.997a10 10 0 1 0-20.001.006A10 10 0 0 0 22 11.997m-1.176 0a8.821 8.821 0 1 0-17.642 0 8.821 8.821 0 0 0 17.642 0m-8.821-1.176a1.176 1.176 0 1 1 0 2.352 1.176 1.176 0 0 1 0-2.352m4.898 7.91a8.4 8.4 0 0 0 2.835-3.647.94.94 0 0 0-.041-.811.93.93 0 0 0-.635-.5l-4.822-1.153a.85.85 0 0 0-.87.312.82.82 0 0 0-.089.918l2.193 4.54c.13.252.353.428.636.493.282.07.558.024.793-.153m-9.761.005a8.4 8.4 0 0 1-2.8-3.505.94.94 0 0 1 .03-.823.93.93 0 0 1 .647-.506l4.751-1.293a1 1 0 0 1 .177-.024.82.82 0 0 1 .694.335.84.84 0 0 1 .088.918l-2.152 4.557a.95.95 0 0 1-.636.5.93.93 0 0 1-.805-.159zM17.53 5.781a8.6 8.6 0 0 0-4.222-2.005.98.98 0 0 0-.782.212.93.93 0 0 0-.34.735l-.03 5.233a.82.82 0 0 0 .488.783.87.87 0 0 0 .917-.118l3.946-3.37a.9.9 0 0 0 .353-.729.94.94 0 0 0-.33-.74m-5.72 4.145-.165-5.204a.94.94 0 0 0-.358-.724.91.91 0 0 0-.783-.194 8.3 8.3 0 0 0-4.145 2.059.95.95 0 0 0-.312.752.91.91 0 0 0 .37.724l4 3.293a.84.84 0 0 0 .564.188.85.85 0 0 0 .829-.894m6.016-2.264-3.734 3.146a.84.84 0 0 0-.33.694.864.864 0 0 0 .7.83l4.705.94a.9.9 0 0 0 .776-.194.91.91 0 0 0 .37-.723c.012-.118.012-.241.012-.359 0-1.47-.382-2.846-1.047-4.052a.97.97 0 0 0-.664-.47.9.9 0 0 0-.788.188m-7.94 3.14-3.792-3.04a.9.9 0 0 0-.788-.165.95.95 0 0 0-.647.488 8.26 8.26 0 0 0-.959 4.517.95.95 0 0 0 .389.711.92.92 0 0 0 .793.165l4.681-1.14a.84.84 0 0 0 .647-.665.83.83 0 0 0-.323-.87m4.488 9.174c-.424.118-.847-.03-1.282-.176-.335-.118-.676-.236-1.035-.236-.335 0-.7.118-1.059.23-.47.147-.929.294-1.329.188-.282-.076-.4-.23-.517-.482a.88.88 0 0 1 0-.788l2.14-4.47a.86.86 0 0 1 .782-.482c.342 0 .636.177.783.482l2.134 4.434a.89.89 0 0 1 .006.782 1 1 0 0 1-.623.512zm-2.37-5.757v4.693s.023.2-.441.34l-1.282.377c-.1.03-.876.135-.553-.74.318-.871 1.835-4.276 1.835-4.276s.159-.365.441-.394" clip-rule="evenodd"/>
</svg>
